X:13046
T:Marmalade Polka
R:Polka
C:Trad.
O:England
Z:Paul Hardy's Session Tunebook 2015 (see www.paulhardy.net). Creative Commons cc by-nc-sa licenced.
M:4/4
L:1/8
Q:1/4=180
K:G
D2|"G"G2G2GABc|dd d2d2ed|"D7"cc c2c2dc|"G"BB B2B3A|G2G2GABc|dd d2d2ed|"C"c2AA"D" A2F2|"G"A2GFG2:|
|:d2|"G"e2d2B2G2|"D"G2F2F4|e2d2c2 A2|"G"A2G2G2Bd|g2g2g2ag|"C"f2e2e3e|"D"d2Bd cAFG|"G"A2GFG2:|

